src/images/clients/chanel.svg

<svg width="180" height="29" viewBox="0 0 180 29" fill="none" xmlns="http://www.w3.org/2000/svg">
<path d="M13.8757 0.0508728C6.27247 0.0508728 0 5.8665 0 14.04C0 22.2131 6.27247 28.0292 13.8757 28.0292C19.0838 28.0292 23.6838 25.2179 26.0407 20.8835L21.3268 18.1845C19.9583 20.9971 17.183 22.7076 13.8757 22.7076C9.12367 22.7076 5.5125 19.1721 5.5125 14.04C5.5125 8.90799 9.12367 5.37252 13.8757 5.37252C17.183 5.37252 19.9583 7.08349 21.3268 9.89663L26.0407 7.19763C23.6838 2.86426 19.0838 0.0508728 13.8757 0.0508728ZM32.6923 0.734913V27.3442H38.015V15.9405H51.3201V27.3452H56.6417V0.734913H51.3201V10.6188H38.015V0.734913H32.6923ZM73.7488 0.734913L61.9634 27.3452H67.7803L70.4029 21.2631H84.3157L86.9394 27.3452H92.7552L80.9719 0.734913H73.7488ZM98.0779 0.734913V27.3452H103.019V6.39909L117.275 27.3452H122.027V0.734913H117.085V18.3743L105.111 0.734913H98.0779ZM132.29 0.734913V27.3452L152.059 27.3462V22.4042H137.232V16.3222H149.397V11.3792H137.232V5.6769H151.297V0.734936L132.29 0.734913ZM160.612 0.734913V27.3452V27.3462H180V22.0246H165.934V0.734936L160.612 0.734913ZM77.3598 5.10634L82.1883 16.3212H72.5314L77.3598 5.10634Z" fill="black"/>
</svg>

<svg xmlns="http://www.w3.org/2000/svg" width="180" height="29" fill="none" viewBox="0 0 180 29"><path fill="#000" d="M13.876.05C6.272.05 0 5.868 0 14.04s6.272 13.99 13.876 13.99c5.208 0 9.808-2.812 12.165-7.146l-4.714-2.7c-1.369 2.813-4.144 4.524-7.451 4.524-4.752 0-8.363-3.536-8.363-8.668s3.61-8.667 8.363-8.667c3.307 0 6.082 1.71 7.45 4.524l4.715-2.7C23.684 2.865 19.084.052 13.876.052Zm18.816.685v26.61h5.323V15.94H51.32v11.404h5.322V.735H51.32v9.884H38.015V.735h-5.323Zm41.057 0-11.786 26.61h5.817l2.623-6.082h13.913l2.623 6.082h5.816L80.972.735h-7.223Zm24.329 0v26.61h4.941V6.4l14.256 20.946h4.752V.735h-4.942v17.64L105.111.734h-7.033Zm34.212 0v26.61l19.769.001v-4.942h-14.827v-6.082h12.165V11.38h-12.165V5.677h14.065V.735H132.29Zm28.322 0v26.611H180v-5.321h-14.066V.735h-5.322ZM77.36 5.106l4.828 11.215h-9.657L77.36 5.106Z"/></svg>
